X:1
T:Title
%%score ( 1 2 3 ) { 4 | 5 }
L:1/8
Q:1/4=140
M:4/2
K:A
V:1 treble nm="Grand Piano, Soprano"
V:2 treble 
V:3 treble 
V:4 bass nm="Choir Pad, Palestine (Modern Harp)"
V:5 bass 
V:1
 [CE]4 [CA]3 [DB] [Ec]6 [Ec]2 | d2 B2 B2 G2 [EA]6 E2 | [DF]4 E4 E4 [B,^D]4 | E8 z8 | %4
w: By~Modern~Harp,~1846 * * * *||||
 [Ec]6 [Ec]2 d2 B2 B2 G2 | [EA]6 E2 [DF]2 [Fd]4 [Ac][FB] | z4 G4 z8 | z16 |] %8
w: ||||
V:2
 x16 | E4 E4 z8 | x16 | B,2 B,2- [A,B,C]2 [B,D]2 [CE]4 [CA]3 [DB] | z8 E4 E4 | x16 | %6
 A4 z2 D2 [CA]8- | [CA]4 z4 z8 |] %8
V:3
 x16 | x16 | x16 | z2 D2 z4 z8 | x16 | x16 | E8 z8 | x16 |] %8
V:4
 A,4 A,3 A, A,6 A,2 | A,2 G,2 G,2 D2 C6 A,2 | A,4 A,4 G,4 F,2 A,2 | G,8 A,4 A,3 A, | %4
 A,6 A,2 B,4 B,4 | A,6 A,2 A,2 B,4[K:treble] ED | C4 B,4 A,8- | A,4 z4 z8 |] %8
V:5
 A,,4 A,,3 A,, A,,6 A,,2 | E,4 E,4 A,6 C,2 | D,4 C,4 B,,4 B,,4 | E,8 A,,4 A,,3 A,, | %4
 A,,6 A,,2 E,4 E,4 | A,,6 C,2 D,2 B,,4 C,D, | E,4 E,4 A,,8- | A,,4 z4 z8 |] %8

